X:1
T:He Took My Sins Away
T:Margaret Jenkins Harris, 1903
T:He Took My Sins Away
T:Public Domain
T:Public Domain
C:Margaret Jenkins Harris, 1903
Z:Public Domain
%%score 1 ( 2 3 )
L:1/8
M:4/4
K:G
V:1 treble 
V:2 bass 
V:3 bass 
V:1
 [B,D] | [B,D]2 [DB]2 [DB]3 [DG] | [EA][EG][DF][CE] [B,D]3 [B,D] | [CD][Fc] [Fc]>[Fc] [Fc]3 [CD] | %4
w: 1.~I|came to Je- sus,|wear- y, worn, and sad. He|took my sins a- way, He|
w: 2.~The|load of sin was|more than I could bear. He|took my sins a- way, He|
w: 3.~No|con- dem- na- tion|have I in my heart, He|took my sins a- way, He|
w: 4.~If|you will come to|Je- sus Christ to- day, He’ll|take your sins a- way, He’ll|
 [B,D][DB] [DB]>[DB] [DB]3 [B,D] | [B,D]2 [DB]2 [DB]3 [DG] | [EA][EG][DF][CE] [B,D]3 D | %7
w: took my sins a- way. And|now His love has|made my heart so glad, He|
w: took my sins a- way. And|now on Him I|roll my ev- ’ry care, He|
w: took my sins a- way. His|per- fect peace He|did to me im- part, He|
w: take your sins a- way, And|keep you hap- py|in His love each day, He’ll|
 [CE]2 [Ec]2 [DF]3 [DG] | [DG]6 z2 ||"^Refrain" [B,D] | [CD][Fc] [Fc]>[Fc] [Fc]3 [CD] | %11
w: took my sins a-|way.|||
w: took my sins a-|way.|||
w: took my sins a-|way.|||
w: take your sins a-|way.|||
 [B,D][DB] [DB]>[DB] [DB]3 [DB] | [^CB][CA][CA][CA] [CB]2 [G^c]2 | [Fd]8 | %14
w: |||
w: |||
w: |||
w: |||
 [B,D]2 [DB]2 [DB]3 [DG] | [EA][EG][DF][CE] [B,D]3 D | [CE]2 [Ec]2 [DF]3 [DG] | [DG]6 |] %18
w: ||||
w: ||||
w: ||||
w: ||||
V:2
 [G,,G,] | [G,,G,]2 [G,,G,]2 [G,,G,]3 [B,,G,] | [C,C][C,C][C,C][C,G,] [G,,G,]3 G, | %3
w: ~|~ ~ ~ ~|~ ~ ~ ~ ~ ~|
 [D,F,][D,A,] [D,A,]>[D,A,] [D,A,]3 [D,F,] | G,G, G,>G, G,3 [G,,G,] | %5
w: ~ ~ ~ ~ ~ ~|~ ~ ~ ~ ~ ~|
 [G,,G,]2 [G,,G,]2 [G,,G,]3 [B,,G,] | [C,C][C,C][C,C][C,G,] [G,,G,]3 [B,,G,] | %7
w: ~ ~ ~ ~|~ ~ ~ ~ ~ He|
 [C,G,]2 [C,G,]2 [D,C]3 [G,,B,] | [G,,B,]6 z2 || [G,,G,] | %10
w: took my sins a-|way,|He|
 [D,F,][D,A,] [D,A,]>[D,A,] [D,A,]3 [D,F,] | G,G, G,>G, G,3 [G,,G,] | %12
w: took my sins a- way, And|keeps me sing- ing ev- ery|
 [A,,G,][A,,G,][A,,G,][A,,G,] [A,,E,]2 [A,,A,]2 | (z2 D,2 C,2 B,,2) | %14
w: took my sins a- way, He||
 [G,,G,]2 [G,,G,]2 [G,,G,]3 [B,,G,] | [C,C][C,C][C,C][C,G,] [G,,G,]3 [B,,G,] | %16
w: my sins a- way.||
 [C,G,]2 [C,G,]2 [D,C]3 [G,,B,] | [G,,B,]6 |] %18
w: ||
V:3
 x | x8 | x7 G, | x8 | G,G, G,>G, G,3 x | x8 | x8 | x8 | x8 || x | x8 | G,G, G,>G, G,3 x | x8 | %13
w: ||~||~ ~ ~ ~ ~|||||||day! I’m so glad He||
 [D,A,]8 | x8 | x8 | x8 | x6 |] %18
w: took|||||

